content/assets/images/logo.svg

<?xml version="1.0" encoding="UTF-8"?>
<svg version="1.1" viewBox="0 0 276.93 274.55" xmlns="http://www.w3.org/2000/svg">
 <g data-name="Layer 2">
  <g transform="matrix(.97936 0 0 .97936 3.8584 4.6611)">
   <path d="m137.83 15.898-98.66 47.068-24.328 105.9 67.946 86.057 112.73-0.52148 64.532-84.544-23.364-105.53zm0.0684 5.5195 94.291 46.193 22.237 100.68-61.505 80.616-107.52 0.4961-64.934-82.121 23.33-100.96z" fill="#fd7e14" fill-opacity=".99608" stroke-width="1.0016"/>
   <g transform="matrix(.90773 0 0 .90773 12.776 12.666)" data-name="Layer 1">
    <g transform="matrix(1.265 0 0 1.265 -34.724 21.538)">
     <path d="m95.9 62.15 4.1 102.1 73.75-94.12a6.79 6.79 0 0 1 9.6-1.11l46 36.92-15-65.61z" fill="#4279f4"/>
     <path d="m102.55 182.98h65.42l-40.17-32.23z" fill="#fd7e14"/>
     <path d="m180.18 83.92-44 56.14 46.88 37.61 44.47-55.76z" fill="#014bd1"/>
     <path d="m83.56 52.3 0.01-0.01 38.69-48.52-62.39 30.05-15.41 67.51z" fill="#fed1aa"/>
     <path d="m45.32 122.05 41.44 51.96-3.95-98.98z" fill="#fea75f"/>
     <path d="m202.31 28.73-59.66-28.73-37.13 46.56z" fill="#a1c3ff"/>
    </g>
   </g>
  </g>
 </g>
</svg>

<?xml version="1.0" encoding="UTF-8" standalone="no"?>
<svg
   viewBox="0 0 276.93 274.55"
   version="1.1"
   id="svg844"
   xmlns="http://www.w3.org/2000/svg"
   xmlns:svg="http://www.w3.org/2000/svg">
  <defs
     id="defs848" />
  <g
     data-name="Layer 2"
     id="g842">
    <g
       data-name="Layer 1"
       id="g840">
      <g
         id="g1743"
         transform="matrix(1.2650286,0,0,1.2650286,-34.723744,21.537527)">
        <path
           d="m 95.9,62.15 4.1,102.1 73.75,-94.12 a 6.79,6.79 0 0 1 9.6,-1.11 l 46,36.92 -15,-65.61 z"
           fill="#4279f4"
           id="path824" />
        <path
           fill="#0028aa"
           d="m 102.55,182.98 h 65.42 L 127.8,150.75 Z"
           id="path826" />
        <path
           fill="#014bd1"
           d="m 180.18,83.92 -44,56.14 46.88,37.61 44.47,-55.76 z"
           id="path828" />
        <path
           fill="#bedcff"
           d="M 83.56,52.3 83.57,52.29 122.26,3.77 59.87,33.82 44.46,101.33 Z"
           id="path830" />
        <path
           fill="#6ca1ff"
           d="M 45.32,122.05 86.76,174.01 82.81,75.03 Z"
           id="path832" />
        <path
           fill="#a1c3ff"
           d="M 202.31,28.73 142.65,0 105.52,46.56 Z"
           id="path834" />
      </g>
    </g>
  </g>
</svg>
